dist/img/icon-point-map-hover.svg

<svg width="25" height="32" viewBox="0 0 25 32" fill="none" xmlns="http://www.w3.org/2000/svg">
<path fill-rule="evenodd" clip-rule="evenodd" d="M11.5691 1.01625C10.3699 1.15874 9.47727 1.36192 8.51744 1.71093C5.8277 2.68889 3.49997 4.80497 2.1669 7.48398C1.269 9.28843 0.806257 11.8472 1.07689 13.5113C1.29196 14.8338 1.63738 15.8278 2.4841 17.5607C3.29822 19.2269 4.23393 20.7646 5.6981 22.8425C7.24034 25.0311 10.1158 28.5219 11.9109 30.3845L12.504 31L13.0971 30.3845C14.3673 29.0664 16.6599 26.3651 18.0533 24.5444C20.0393 21.9496 21.4749 19.7069 22.5238 17.5607C23.6786 15.1975 24.0621 13.7721 23.992 12.1028C23.8675 9.13355 22.6829 6.44087 20.5758 4.33718C18.8758 2.64 16.705 1.53041 14.2897 1.12423C13.7769 1.03796 11.9848 0.966835 11.5691 1.01625ZM13.1015 7.8165C14.5392 7.94256 15.9647 8.93184 16.7018 10.315C17.1148 11.0899 17.2073 11.4978 17.2073 12.5429C17.2073 13.3324 17.1893 13.5107 17.0705 13.8927C16.5972 15.4154 15.5121 16.5331 13.9702 17.0861C13.4868 17.2596 13.432 17.2663 12.504 17.2663C11.576 17.2663 11.5212 17.2596 11.0377 17.0861C9.49579 16.5331 8.41075 15.4154 7.93743 13.8927C7.81865 13.5107 7.8006 13.3324 7.8006 12.5429C7.8006 11.7556 7.81888 11.5741 7.93667 11.1931C8.51212 9.33156 10.1198 7.99062 12.0083 7.79701C12.2649 7.77066 12.5273 7.75658 12.5916 7.76561C12.6559 7.77465 12.8853 7.79754 13.1015 7.8165Z" stroke="#fff" fill="#569F29"/>
</svg>

<svg width="25" height="32" fill="none" xmlns="http://www.w3.org/2000/svg"><path fill-rule="evenodd" clip-rule="evenodd" d="M11.57 1.016c-1.2.143-2.093.346-3.053.695-2.69.978-5.017 3.094-6.35 5.773-.898 1.804-1.36 4.363-1.09 6.027.215 1.323.56 2.317 1.407 4.05.814 1.666 1.75 3.204 3.214 5.282 1.542 2.188 4.418 5.679 6.213 7.541l.593.616.593-.616c1.27-1.318 3.563-4.019 4.956-5.84 1.986-2.594 3.422-4.837 4.47-6.983 1.156-2.364 1.54-3.789 1.469-5.458-.125-2.97-1.31-5.662-3.416-7.766-1.7-1.697-3.871-2.807-6.286-3.213-.513-.086-2.305-.157-2.72-.108zm1.531 6.8c1.438.127 2.864 1.116 3.6 2.499.414.775.506 1.183.506 2.228 0 .79-.018.968-.137 1.35-.473 1.522-1.558 2.64-3.1 3.193-.483.174-.538.18-1.466.18-.928 0-.983-.006-1.466-.18-1.542-.553-2.627-1.67-3.1-3.193-.12-.382-.137-.56-.137-1.35 0-.787.018-.969.136-1.35.575-1.861 2.183-3.202 4.071-3.396.257-.026.52-.04.584-.031.064.009.293.032.51.05z" stroke="#fff" fill="#569F29"/></svg>
